src/assets/icon/liked-heart.svg

<svg width="38" height="31" viewBox="0 0 38 31" fill="none" xmlns="http://www.w3.org/2000/svg">
<path d="M20.0594 5.98155C23.3621 2.67803 28.717 2.67803 32.0197 5.98156C35.3225 9.28508 35.3225 14.6411 32.0197 17.9447L23.753 26.2133C21.1302 28.8367 16.8779 28.8367 14.2551 26.2133L8.23093 20.1878C7.57523 19.5319 7.57523 18.4686 8.23093 17.8127L20.0594 5.98155Z" fill="#EC602D"/>
<foreignObject x="-16.4971" y="-16.4609" width="66.7578" height="64.6797"><div xmlns="http://www.w3.org/1999/xhtml" style="backdrop-filter:blur(10px);clip-path:url(#bgblur_0_3998_13823_clip_path);height:100%;width:100%"></div></foreignObject><path data-figma-bg-blur-radius="20" d="M5.98018 17.9816C2.67741 14.678 2.67742 9.32197 5.98018 6.01844C9.28294 2.71492 14.6378 2.71492 17.9405 6.01844L29.769 17.8496C30.4247 18.5055 30.4247 19.5688 29.769 20.2246L23.7448 26.2502C21.122 28.8736 16.8697 28.8736 14.2469 26.2502L5.98018 17.9816Z" fill="white" fill-opacity="0.2"/>
<defs>
<clipPath id="bgblur_0_3998_13823_clip_path" transform="translate(16.4971 16.4609)"><path d="M5.98018 17.9816C2.67741 14.678 2.67742 9.32197 5.98018 6.01844C9.28294 2.71492 14.6378 2.71492 17.9405 6.01844L29.769 17.8496C30.4247 18.5055 30.4247 19.5688 29.769 20.2246L23.7448 26.2502C21.122 28.8736 16.8697 28.8736 14.2469 26.2502L5.98018 17.9816Z"/>
</clipPath></defs>
</svg>

<svg xmlns="http://www.w3.org/2000/svg" fill="none" viewBox="0 0 38 31">
  <path fill="#EC602D" d="M20.06 5.982a8.456 8.456 0 0 1 11.96 0 8.46 8.46 0 0 1 0 11.963l-8.267 8.268a6.715 6.715 0 0 1-9.498 0l-6.024-6.025a1.68 1.68 0 0 1 0-2.375z"></path>
  <path fill="#fff" fill-opacity="0.2" d="M5.98 17.982a8.46 8.46 0 0 1 0-11.964 8.456 8.456 0 0 1 11.96 0L29.77 17.85a1.68 1.68 0 0 1 0 2.375l-6.024 6.025a6.715 6.715 0 0 1-9.498 0z"></path>
</svg>
